!!!COM: Music21
!!!OTL: Alalá
!!!OMV: pezas_alalas_alala-8_alala-partitura.musicxml
**kern
*I"Gaita
*I'Bag
*clefG^2
*k[]
*M4/4
*met(c)
=1
!LO:TX:a:B:t=Andante
*MM96
!LO:TX:a:t=[quarter]=96
2aa
2ddd
=
4aa
4aa
4gg
4gg
=
4ccc
4ccc
4ddd
4ddd
=
4eee
4eee
4ddd
4ccc
=
2eee
2ddd;
=
2aa
2ddd
=
4aa
4aa
4gg
4gg
!!linebreak:original
=
4ccc
4ccc
4ddd
4ddd
=
2aa
4gg
[4ccc
=
4ccc]
4aa
2bb
=
2aa;
2r
==
*-
